assets/icons/image.svg

<svg width="24" height="24" viewBox="0 0 30 30" fill="none" xmlns="http://www.w3.org/2000/svg"><path fill-rule="evenodd" clip-rule="evenodd" d="M24.273 5C25.778 5 27 6.244 27 7.778v14.444C27 23.756 25.778 25 24.273 25H5.727C4.222 25 3 23.756 3 22.222V7.778C3 6.244 4.222 5 5.727 5h18.546ZM9.002 17.535 4.999 22.02v.968h9.016v-.013H25.01v-.928l-6.233-6.637-6.218 5.307-3.557-3.183v.001ZM23.614 7H6.386c-.85 0-1.325.376-1.38 1.169L5 8.333v10.314l2.667-2.257c.426-.368.844-.557 1.333-.557.429 0 .849.152 1.24.437l.167.13 1.916 1.65 4.698-4.008c.479-.407.989-.587 1.562-.587.484 0 .958.153 1.377.457l.176.14L25 18.398V8.333c0-.849-.43-1.279-1.222-1.328L23.614 7Zm-10.89 4.667c0-1.211-.986-2.223-2.178-2.223-1.2 0-2.186 1.012-2.186 2.223 0 1.23.986 2.222 2.186 2.222 1.192 0 2.177-.992 2.177-2.222h.001Z" fill="#485FC7"/></svg>

<svg width="24" height="24" viewBox="0 0 30 30" fill="none" xmlns="http://www.w3.org/2000/svg">
<path fill-rule="evenodd" clip-rule="evenodd" d="M24.273 5C25.778 5 27 6.244 27 7.778V22.222C27 23.756 25.778 25 24.273 25H5.727C4.222 25 3 23.756 3 22.222V7.778C3 6.244 4.222 5 5.727 5H24.273ZM9.002 17.535L4.999 22.02V22.988H14.015V22.975H25.01V22.047L18.777 15.41L12.559 20.717L9.002 17.534V17.535ZM23.614 7H6.386C5.536 7 5.061 7.376 5.006 8.169L5 8.333V18.647L7.667 16.39C8.093 16.022 8.511 15.833 9 15.833C9.429 15.833 9.849 15.985 10.24 16.27L10.407 16.4L12.323 18.05L17.021 14.042C17.5 13.635 18.01 13.455 18.583 13.455C19.067 13.455 19.541 13.608 19.96 13.912L20.136 14.052L25 18.398V8.333C25 7.484 24.57 7.054 23.778 7.005L23.614 7ZM12.724 11.667C12.724 10.456 11.738 9.444 10.546 9.444C9.346 9.444 8.36 10.456 8.36 11.667C8.36 12.897 9.346 13.889 10.546 13.889C11.738 13.889 12.723 12.897 12.723 11.667H12.724Z" fill="#485FC7"/>
</svg>
